X: 317
T:Li dous regars de ma Dame
C:Adam de la Halle
B:Ms de Cambrai
F:
F:https://archive.org/details/oeuvrescompltes00cousgoog/page/n513
Z:Ali Corbin <ali.corbin:gmail.com>
M:3/4
L:1/4
Q:1/4=120
K:G Mixolydian
%
%%MIDI program 1       42 Cello
%%MIDI program 2       72 piccolo
%%MIDI program 3       70 bassoon
V:1 clef=treble
V:2 clef=treble_8
V:3 clef=treble_8
%
[V:1] D ((3:2:2E/F    G)|       G    ((3:2:2F/ E G) |C  (DE)  |F  (D E) |
[V:2] G      (3G/F/E/ D |((3:2:2DC/) ((3:2:2B,/A,G,)|F, (G,A,)|B, (B,C) |
[V:3] G,       G,2      |       G,   ((3:2:2B,/C D) |G  (DC)  |B, (G,A,)|
w:1.4.7.~Li    dous            re-          gars**   de  ma*   da- me*   
w:3.~~~~~Diex  gart            son          gent**   cor de*   blas-me.*
w:5.~~~~~Je    ne              vi           on-**   ques par*  m'a-me*  
%
[V:1] G (FE)| F  (E D) |((3:2:2F/E) ((3:2:2G/FE)  |G3 ||
[V:2] D  G,2| F, (A,B,)|((3:2:2CD/) ((3:2:2C/B,A,)|G,3||
[V:3] G, B,2| C  (A,G,)|((3:2:2F,/A,)      C2     |D3 ||
w:2.8.~Me fait es-pé-*         rer*        mer-    ci. 
w:6.~~~~Da-me  plus plai-*    sant*        de      li.   
W:
W:Li dous regars de ma Dame         % The sweet glances of my lady 
W:Me fait espérer merci.            % Make me hope for mercy. 
W:
W:Diex gart son gent cor de blasme. % God keep her noble body from blame. 
W:
W:
W:Li dous regars de ma Dame
W:
W:Je ne vi onques par m'ame         % I live not ??? on my soul 
W:Dame plus plaisant de li.         % Lady more pleasant of it. 
W:
W:Li dous regars de ma Dame
W:Me fait espérer merci.

%%newpage
